X: 139
T: Pool's Hole
M:6/8
L:1/8
Q:160
S:Playford
O:Manuscript
A:English
K:F
d2 e2|f2 ef gfed|e2 A2 d2 e2|f2 ef gfed|e4 d2 e2|f2 ef gfed|e2 A2 d2 e2| f2 ef gfed| e4:|
|: f2 e2|a2a bagf|g2 A2 f2 g2|a2 ga bagf| g2 fe f4|e4 d2 e2| ^c2 BA f4|e2 a2 d2 ^c2| d4:|

